X: 3
T: the Banshee 3
T: McMahon's Reel
C: James McMahon
R: reel
Z: John Chambers <jc:trillian.mit.edu>
M: C|
L: 1/8
K: G
|:\
"G"~G3D EDEG | "Am"AGAB "D7"d2Bd | "G"eged "Em"BAGA |\
[1,3 "C"BAGE "D7"EDEF :|2,4 "C"BAGE "D7"EDD2 :|
|:\
"Am"eaag efge | "G"dBBA "(Bm)"B2Bd |\
[1,3 "Em"eB~B2 gBfB | eBBA B2Bd :|\
[2,4 "C"eged "Em"BAGA | "Am"BAGE "D7"EDD2 :|
